static/img/icons/sidebar/edit.svg

<?xml version="1.0" encoding="UTF-8"?>
<!-- Created with Inkscape (http://www.inkscape.org/) -->
<svg width="7.2516mm" height="7.2517mm" version="1.1" viewBox="0 0 7.2516 7.2517" xmlns="http://www.w3.org/2000/svg">
 <g transform="translate(-104.71 -36.185)" clip-rule="evenodd" fill="#0047ad" fill-rule="evenodd">
  <g transform="matrix(.24164 0 0 .24164 90.309 36.183)">
   <path d="m15 2.5c-4.1421 0-7.5 3.3579-7.5 7.5 0 4.1421 3.3579 7.5 7.5 7.5s7.5-3.3579 7.5-7.5c0-4.1421-3.3579-7.5-7.5-7.5zm-10 7.5c0-5.5228 4.4772-10 10-10 5.5228 0 10 4.4772 10 10 0 5.5228-4.4772 10-10 10-5.5228 0-10-4.4772-10-10z"/>
   <path d="m19.573 16.111c0.6844-0.0908 1.3128 0.3903 1.4036 1.0747l1.5125 11.4c0.0631 0.4758-0.1518 0.9457-0.5529 1.2092-0.4012 0.2635-0.9178 0.274-1.3294 0.0271l-5.6069-3.3642-5.6068 3.3642c-0.41159 0.2469-0.92824 0.2364-1.3294-0.0272-0.40117-0.2635-0.61602-0.7335-0.55282-1.2093l1.5125-11.388c0.0909-0.6843 0.71936-1.1654 1.4037-1.0745 0.6844 0.0909 1.1654 0.7193 1.0745 1.4037l-1.171 8.8168 4.0263-2.4158c0.3959-0.2375 0.8904-0.2375 1.2863 0l4.0267 2.4161-1.1715-8.8298c-0.0908-0.6844 0.3904-1.3127 1.0747-1.4035z"/>
  </g>
  <g transform="matrix(.26344 0 0 .26344 97.029 35.861)">
   <path d="m8.125 22.5c-0.49728 0-0.97419 0.1975-1.3258 0.5492-0.35163 0.3516-0.54917 0.8285-0.54917 1.3258 0 0.6904-0.55964 1.25-1.25 1.25s-1.25-0.5596-1.25-1.25c0-1.1603 0.46094-2.2731 1.2814-3.0936s1.9333-1.2814 3.0936-1.2814h16.875c0.6904 0 1.25 0.5596 1.25 1.25s-0.5596 1.25-1.25 1.25z"/>
   <path d="m8.125 3.75c-0.49728 0-0.97419 0.19754-1.3258 0.54917-0.35163 0.35164-0.54917 0.82855-0.54917 1.3258v18.75c0 0.4973 0.19754 0.9742 0.54917 1.3258 0.35164 0.3517 0.82855 0.5492 1.3258 0.5492h15.625v-22.5zm0-2.5h16.875c0.6904 0 1.25 0.55964 1.25 1.25v25c0 0.6904-0.5596 1.25-1.25 1.25h-16.875c-1.1603 0-2.2731-0.4609-3.0936-1.2814s-1.2814-1.9333-1.2814-3.0936v-18.75c0-1.1603 0.46094-2.2731 1.2814-3.0936s1.9333-1.2814 3.0936-1.2814z"/>
  </g>
  <g transform="matrix(.32781 0 0 .32781 104.38 35.897)">
   <path d="m1.8787 3.8787c0.56261-0.56261 1.3257-0.87868 2.1213-0.87868h7c0.5523 0 1 0.44772 1 1s-0.4477 1-1 1h-7c-0.26522 0-0.51957 0.10536-0.70711 0.29289-0.18753 0.18754-0.29289 0.44189-0.29289 0.70711v14c0 0.2652 0.10536 0.5196 0.29289 0.7071 0.18754 0.1875 0.44189 0.2929 0.70711 0.2929h14c0.2652 0 0.5196-0.1054 0.7071-0.2929s0.2929-0.4419 0.2929-0.7071v-7c0-0.5523 0.4477-1 1-1s1 0.4477 1 1v7c0 0.7957-0.3161 1.5587-0.8787 2.1213s-1.3256 0.8787-2.1213 0.8787h-14c-0.79565 0-1.5587-0.3161-2.1213-0.8787s-0.87868-1.3256-0.87868-2.1213v-14c0-0.79565 0.31607-1.5587 0.87868-2.1213z"/>
   <path d="m20 2.8787c-0.2974 0-0.5826 0.11814-0.7929 0.32843l-9.3041 9.3041-0.5286 2.1144 2.1144-0.5286 9.3041-9.3041c0.2103-0.21029 0.3284-0.49551 0.3284-0.7929s-0.1181-0.5826-0.3284-0.79289-0.4955-0.32843-0.7929-0.32843zm-2.2071-1.0858c0.5854-0.58537 1.3793-0.91422 2.2071-0.91422s1.6218 0.32885 2.2071 0.91422c0.5854 0.58536 0.9142 1.3793 0.9142 2.2071 0 0.82783-0.3288 1.6218-0.9142 2.2071l-9.5 9.5c-0.1281 0.1281-0.2887 0.2191-0.4645 0.263l-4 1c-0.34078 0.0852-0.70127-0.0146-0.94965-0.263s-0.34823-0.6089-0.26303-0.9497l1-4c0.04396-0.1758 0.13488-0.3364 0.26303-0.4645z"/>
  </g>
  <g transform="matrix(.26344 0 0 .26344 113.06 35.86)">
   <path d="m22.866 14.116c0.4882-0.4881 1.2796-0.4881 1.7678 0l3.75 3.75c0.4881 0.4882 0.4881 1.2796 0 1.7678l-8.75 8.75c-0.4882 0.4881-1.2796 0.4881-1.7678 0l-3.75-3.75c-0.4881-0.4882-0.4881-1.2796 0-1.7678zm-6.0983 9.6339 1.9822 1.9822 6.9822-6.9822-1.9822-1.9822z"/>
   <path d="m1.6161 1.6161c0.30792-0.30791 0.75389-0.43339 1.1772-0.33122l18.125 4.375c0.4732 0.11421 0.837 0.49268 0.9324 0.96996l1.8751 9.375c0.0819 0.4098-0.0464 0.8335-0.3419 1.129l-6.25 6.25c-0.2955 0.2955-0.7192 0.4238-1.129 0.3419l-9.375-1.8751c-0.47728-0.0954-0.85575-0.4592-0.96996-0.9324l-4.375-18.125c-0.10217-0.4233 0.02331-0.86927 0.33122-1.1772zm2.5789 2.5789 3.7078 15.361 7.9364 1.5873 5.3039-5.3039-1.5873-7.9364z"/>
   <path d="m1.6161 1.6161c0.48815-0.48816 1.2796-0.48816 1.7678 0l9.4825 9.4825c0.4881 0.4882 0.4881 1.2796 0 1.7678-0.4882 0.4881-1.2796 0.4881-1.7678 0l-9.4825-9.4825c-0.48816-0.48815-0.48816-1.2796 0-1.7678z"/>
   <path d="m13.75 12.5c-0.6904 0-1.25 0.5596-1.25 1.25s0.5596 1.25 1.25 1.25 1.25-0.5596 1.25-1.25-0.5596-1.25-1.25-1.25zm-3.75 1.25c0-2.0711 1.6789-3.75 3.75-3.75s3.75 1.6789 3.75 3.75-1.6789 3.75-3.75 3.75-3.75-1.6789-3.75-3.75z"/>
  </g>
 </g>
</svg>

<svg width="24" height="24" viewBox="0 0 24 24" fill="none" xmlns="http://www.w3.org/2000/svg">
<path fill-rule="evenodd" clip-rule="evenodd" d="M1.87868 3.87868C2.44129 3.31607 3.20435 3 4 3H11C11.5523 3 12 3.44772 12 4C12 4.55228 11.5523 5 11 5H4C3.73478 5 3.48043 5.10536 3.29289 5.29289C3.10536 5.48043 3 5.73478 3 6V20C3 20.2652 3.10536 20.5196 3.29289 20.7071C3.48043 20.8946 3.73478 21 4 21H18C18.2652 21 18.5196 20.8946 18.7071 20.7071C18.8946 20.5196 19 20.2652 19 20V13C19 12.4477 19.4477 12 20 12C20.5523 12 21 12.4477 21 13V20C21 20.7957 20.6839 21.5587 20.1213 22.1213C19.5587 22.6839 18.7957 23 18 23H4C3.20435 23 2.44129 22.6839 1.87868 22.1213C1.31607 21.5587 1 20.7957 1 20V6C1 5.20435 1.31607 4.44129 1.87868 3.87868Z" fill="#1E70F7"/>
<path fill-rule="evenodd" clip-rule="evenodd" d="M20 2.87891C19.7026 2.87891 19.4174 2.99705 19.2071 3.20733L9.90299 12.5115L9.37439 14.6259L11.4888 14.0973L20.7929 4.79312C21.0032 4.58283 21.1213 4.29762 21.1213 4.00023C21.1213 3.70283 21.0032 3.41762 20.7929 3.20733C20.5826 2.99705 20.2974 2.87891 20 2.87891ZM17.7929 1.79312C18.3783 1.20776 19.1722 0.878906 20 0.878906C20.8278 0.878906 21.6218 1.20776 22.2071 1.79312C22.7925 2.37848 23.1213 3.1724 23.1213 4.00023C23.1213 4.82805 22.7925 5.62197 22.2071 6.20733L12.7071 15.7073C12.579 15.8355 12.4184 15.9264 12.2426 15.9704L8.24256 16.9704C7.90178 17.0556 7.54129 16.9557 7.29291 16.7073C7.04453 16.459 6.94468 16.0985 7.02988 15.7577L8.02988 11.7577C8.07384 11.5819 8.16476 11.4213 8.29291 11.2931L17.7929 1.79312Z" fill="#1E70F7"/>
</svg>
